X:191
T: The Tap Room
B: Max Brcher
M:4/4
L:1/8
K:Eminor
E2 EB dB ~B2 | dBAF DEFD | E2 EB dB ~B2 | dBAc BEED | 
E2 EB dB ~B2 | dBAF DEFD | afge fded | ~B2 Ac BEED |
E2 (3EEE dEBE | dBAF DEFD | E2 (3EEE dEBE | dBAc BEED |
E2 EB dB ~B2 | dBAF DEFD | afge fded | BdAc BE E2 ||
(3B^cd ef gfeB | dBAF DEFD | Beef gfed | BdAc BE ~E2|(3B^cd ef gfeB |
dBAF DEFD|1afge fded |BdAc BE ~E2:|2 afge fdeB|  dBAF DEFD||
